X:1
T:OPERATION Adverture Awesome
C:Mitchovich
R:reel
M:C
Z:http://umass.facebook.com/photo.phppid=31551575&id=9132943
L:1/8
K:Am
%
"Am"AEAc AEAc|"Am"AEAB cBAB|"F"cFcd cFcd|"F"cBcd cBAG|
"Am"AEAc AEAc|"Am"AEAB cBAB|"C"cBcd edcB|1 "G"B3c BcBA:|2 "G"BcdB cdeg|]
%
"F"ac (3ccc abag|"Am"ac (3ccc efec|"G"BGBc BGBc|"Am"A2 AB cdeg|
"F"ac (3ccc abag|"Am"ac (3ccc efec|"G"B2 c d2 B cd-|1 "G"dBcd Bdeg:|2 "Am"AEAc "G"BcBg|]
